X:264
T: IM KRUG ZUM GRUENEN KRANZE
N: B0313
O: Europa, Mitteleuropa, Deutschland
R: Geselligkeits - Lied, Freude, Freundschaft
M: 2/4
L: 1/16
K: D
DF | A3BAFGE | F4E2
E2 | F2FAG2GB | A4z2
A2 | d2d2dcBA | B4A4 | G4F2
A2 | B2AGF2E2 | D4z2

@@@ Tune index: 2067
